!!!COM: Palestrina, Giovanni Perluigi da
!!!OPR: Missa Fratres Ego Enim Accepi
!!!OMD: Gloria
!!!OTL: First Section
**kern	**kern	**kern	**kern	**kern	**kern	**kern	**kern
*Ibass	*Itenor	*Icalto	*Icant	*Ibass	*Itenor	*Icalto	*Icant
!Bassus	!Tenor	!Altus	!Cantus	!Bassus	!Tenor	!Altus	!Cantus
*clefF4	*clefGv2	*clefG2	*clefG2	*clefF4	*clefGv2	*clefG2	*clefG2
*k[b-]	*k[b-]	*k[b-]	*k[b-]	*k[b-]	*k[b-]	*k[b-]	*k[b-]
*G:dor	*G:dor	*G:dor	*G:dor	*G:dor	*G:dor	*G:dor	*G:dor
*M4/2	*M4/2	*M4/2	*M4/2	*M4/2	*M4/2	*M4/2	*M4/2
=1	=1	=1	=1	=1	=1	=1	=1
0r	0r	0r	0r	0r	0r	0g	1r
.	.	.	.	.	.	.	1dd
=2	=2	=2	=2	=2	=2	=2	=2
0r	0r	0r	0r	0G	1r	1d	1dd
.	.	.	.	.	1d	[1g	[1b-
=3	=3	=3	=3	=3	=3	=3	=3
0r	0r	0r	0r	1D	1d	2g]	2b-]
.	.	.	.	.	.	2f	2a
.	.	.	.	[1G	[1B-	2.b-	4g
.	.	.	.	.	.	.	4a
.	.	.	.	.	.	.	4b-
.	.	.	.	.	.	4a	4cc
=4	=4	=4	=4	=4	=4	=4	=4
0r	0r	0r	0r	2G]	2B-]	2g	1dd
.	.	.	.	2F	2A	2a	.
.	.	.	.	[1B-	4G	2.d	2dd
.	.	.	.	.	4A	.	.
.	.	.	.	.	4B-	.	[2dd
.	.	.	.	.	4c	4e	.
=5	=5	=5	=5	=5	=5	=5	=5
0r	0r	0r	0r	2B-]	2d	4f	2dd]
.	.	.	.	.	.	4g	.
.	.	.	.	2A	2e	1a	4cc
.	.	.	.	.	.	.	4b-
.	.	.	.	2F	2f	.	2a
.	.	.	.	2G	2d	4g	2b-
.	.	.	.	.	.	4f	.
=6	=6	=6	=6	=6	=6	=6	=6
0r	0r	0r	0r	0A	2c#	2e	0a
.	.	.	.	.	1d	2f	.
.	.	.	.	.	.	1e	.
.	.	.	.	.	2c#	.	.
=7	=7	=7	=7	=7	=7	=7	=7
0G	0d	1g	0b-	0r	0r	0r	0r
.	.	2d	.	.	.	.	.
.	.	[2g	.	.	.	.	.
=8	=8	=8	=8	=8	=8	=8	=8
1D	1d	2g]	1a	0r	0r	0r	0r
.	.	2f	.	.	.	.	.
[1G	[1B-	[1b-	4g	.	.	.	.
.	.	.	4a	.	.	.	.
.	.	.	4b-	.	.	.	.
.	.	.	4cc	.	.	.	.
=9	=9	=9	=9	=9	=9	=9	=9
2G]	2B-]	2b-]	4dd	0r	0r	0r	0r
.	.	.	4ee	.	.	.	.
2F	2c	4a	2.ff	.	.	.	.
.	.	4g	.	.	.	.	.
1B-	4d	2.f	.	.	.	.	.
.	4e	.	4ee	.	.	.	.
.	[2f	.	2dd	.	.	.	.
.	.	4g	.	.	.	.	.
=10	=10	=10	=10	=10	=10	=10	=10
0A	2f]	0a	2cc	0r	0r	0r	0r
.	4e	.	1dd	.	.	.	.
.	4d	.	.	.	.	.	.
.	1e	.	.	.	.	.	.
.	.	.	2cc#	.	.	.	.
=11	=11	=11	=11	=11	=11	=11	=11
0r	1d	1a	1dd	1d	2r	1r	1ff
.	.	.	.	.	2.a	.	.
.	1r	1r	1r	2c	.	1a	2ee
.	.	.	.	.	4g	.	.
.	.	.	.	[2d	4f	.	[2ff
.	.	.	.	.	4e	.	.
=12	=12	=12	=12	=12	=12	=12	=12
0r	0r	0r	0r	4d]	1d	2f	4ff]
.	.	.	.	4c	.	.	4ee
.	.	.	.	2B-	.	2g	2dd
.	.	.	.	1A	2e	1a	1cc
.	.	.	.	.	2f	.	.
=13	=13	=13	=13	=13	=13	=13	=13
2r	2r	2r	2r	1G	1g	1d	4b-
.	.	.	.	.	.	.	4cc
2G	2d	2b-	2g	.	.	.	4dd
.	.	.	.	.	.	.	4ee-
2F#	2d	2a	2a	1r	1d	1r	1dd
[2G	2d	[2g	[2b-	.	.	.	.
=14	=14	=14	=14	=14	=14	=14	=14
2G]	2G	2g]	2b-]	0r	0r	0r	0r
2E-	2.c	2g	2cc	.	.	.	.
1D	.	1f	2dd	.	.	.	.
.	4B	.	.	.	.	.	.
.	2B	.	[2ff	.	.	.	.
=15	=15	=15	=15	=15	=15	=15	=15
0C	0c	2a	2ff]	1r	1r	1r	1r
.	.	4g	4ee	.	.	.	.
.	.	4f	4dd	.	.	.	.
.	.	1g	1ee	1c	2r	1e	1cc
.	.	.	.	.	2g	.	.
=16	=16	=16	=16	=16	=16	=16	=16
0r	0r	0r	0r	2B	2g	2d	2dd
.	.	.	.	1c	1g	1e	1cc
.	.	.	.	2A	[2f	2f	2cc
=17	=17	=17	=17	=17	=17	=17	=17
1r	1r	1r	1r	1G	4f]	1g	2.b-
.	.	.	.	.	8e	.	.
.	.	.	.	.	8d	.	.
.	.	.	.	.	2e	.	.
.	.	.	.	.	.	.	8a
.	.	.	.	.	.	.	8g
2r	2r	2r	2r	1F	1f	1c	1a
2F	2c	2a	2ff	.	.	.	.
=18	=18	=18	=18	=18	=18	=18	=18
2F	2c	2a	2ff	1r	1r	1r	1r
2F	2c	2a	2ff	.	.	.	.
[1C	[1c	[1g	[1ee	1c	1g	1e	1cc
=19	=19	=19	=19	=19	=19	=19	=19
1C]	1c]	1g]	1ee]	2c	2e	1.g	2cc
.	.	.	.	2c	2c	.	2g
1G	1B-	1g	1dd	1G	2d	.	2.b-
.	.	.	.	.	[2g	[2d	.
.	.	.	.	.	.	.	4cc
=20	=20	=20	=20	=20	=20	=20	=20
0D	0A	1a	0dd	0d	2g]	2d]	1dd
.	.	.	.	.	4f#	1a	.
.	.	.	.	.	4e	.	.
.	.	1d	.	.	1f#	.	1a
.	.	.	.	.	.	2d	.
=21	=21	=21	=21	=21	=21	=21	=21
2r	2r	2r	2r	2G	2g	2d	2b
1C	1c	1g	1ee	1c	1g	1e	1cc
2C	2c	2g	2ee	2c	2g	2e	2cc
=22	=22	=22	=22	=22	=22	=22	=22
1C	1c	2g	1ee	1c	1e	1g	1cc
.	.	2.cc	.	.	.	.	.
[1F	2.A	.	[1ff	[1F	2.a	2.f	[1cc
.	.	4b-	.	.	.	.	.
.	.	[2a	.	.	.	.	.
.	4B-	.	.	.	4g	4g	.
=23	=23	=23	=23	=23	=23	=23	=23
2F]	2c	2a]	2ff]	2F]	2f	2a	2cc]
2F	2c	2f	2ff	2F	2f	2a	2cc
1BB-	1B-	1d	2ff	1B-	1f	1b-	1dd
.	.	.	[2f	.	.	.	.
=24	=24	=24	=24	=24	=24	=24	=24
0F	1c	0f	4f]	2.F	1f	1a	1cc
.	.	.	4g	.	.	.	.
.	.	.	4a	.	.	.	.
.	.	.	4b-	4G	.	.	.
.	4A	.	1cc	1A	1F	1a	1ff
.	4B-	.	.	.	.	.	.
.	4c	.	.	.	.	.	.
.	4d	.	.	.	.	.	.
=25	=25	=25	=25	=25	=25	=25	=25
0C	2.e	2.g	0cc	1c	2r	2r	1ee
.	.	.	.	.	1c	2g	.
.	4f	4f	.	.	.	.	.
.	1g	1e	.	1r	.	2g	2r
.	.	.	.	.	2c	[2e	[2cc
=26	=26	=26	=26	=26	=26	=26	=26
0r	0r	0r	0r	2r	1A	2e]	2cc]
.	.	.	.	1F	.	2c	2cc
.	.	.	.	.	2F	2.f	1a
.	.	.	.	2F	[2f	.	.
.	.	.	.	.	.	4g	.
=27	=27	=27	=27	=27	=27	=27	=27
0r	0r	0r	0r	1D	2f]	2a	2f
.	.	.	.	.	2d	2a	1ff
.	.	.	.	2BB-	2.d	1b-	.
.	.	.	.	[2B-	.	.	2dd
.	.	.	.	.	4e	.	.
=28	=28	=28	=28	=28	=28	=28	=28
0r	0r	0r	0r	2B-]	2f	2r	1dd
.	.	.	.	2G	2.g	1b-	.
.	.	.	.	2G	.	.	2.gg
.	.	.	.	.	4f	.	.
.	.	.	.	[2c	4e	2g	.
.	.	.	.	.	4d	.	4ff
=29	=29	=29	=29	=29	=29	=29	=29
0r	0r	0r	0r	2c]	2c	1g	2ee
.	.	.	.	2B-	2d	.	1dd
.	.	.	.	1A	1e	1a	.
.	.	.	.	.	.	.	2cc#
=30	=30	=30	=30	=30	=30	=30	=30
2r	2r	2r	2r	1D	1d	1a	1dd
2.D	2.d	2.f#	2.a	.	.	.	.
.	.	.	.	1r	1r	1r	1r
4D	4d	4f#	4a	.	.	.	.
2D	2d	2f#	2a	.	.	.	.
=31	=31	=31	=31	=31	=31	=31	=31
2G	2d	2g	2b-	0r	0r	0r	0r
2F#	2d	2a	2a	.	.	.	.
2.G	1d	[1b-	4g	.	.	.	.
.	.	.	4a	.	.	.	.
.	.	.	4b-	.	.	.	.
4A	.	.	4cc	.	.	.	.
=32	=32	=32	=32	=32	=32	=32	=32
4B-	2.d	2b-]	4dd	0r	0r	0r	0r
4c	.	.	4ee	.	.	.	.
1d	.	4a	1ff	.	.	.	.
.	4e	4g	.	.	.	.	.
.	4f	2a	.	.	.	.	.
.	4g	.	.	.	.	.	.
2d	[2a	2f	2dd	.	.	.	.
=33	=33	=33	=33	=33	=33	=33	=33
1c	2a]	1cc	1ee-	0r	0r	0r	0r
.	1g	.	.	.	.	.	.
1d	.	1a	1dd	.	.	.	.
.	2f#	.	.	.	.	.	.
=34	=34	=34	=34	=34	=34	=34	=34
0r	0r	0r	0r	1.G	1.d	1.g	1.b
.	.	.	.	2G	2d	2g	2b
=35	=35	=35	=35	=35	=35	=35	=35
0r	0r	0r	0r	1c	1e	1g	1cc
.	.	.	.	2B	2d	1g	2dd
.	.	.	.	[2c	[2e	.	2g
=36	=36	=36	=36	=36	=36	=36	=36
0r	0r	0r	0r	4c]	2e]	2g	2.cc
.	.	.	.	4B-	.	.	.
.	.	.	.	4A	2.f	2.a	.
.	.	.	.	4G	.	.	4b-
.	.	.	.	2F	.	.	4a
.	.	.	.	.	4e	4g	8b-
.	.	.	.	.	.	.	8cc
.	.	.	.	[2B-	4d	4f	[2dd
.	.	.	.	.	4c	4e	.
=37	=37	=37	=37	=37	=37	=37	=37
0r	0r	0r	0r	2B-]	1B-	2d	4dd]
.	.	.	.	.	.	.	4cc
.	.	.	.	2G	.	2e	1b-
.	.	.	.	1F	2.c	2f	.
.	.	.	.	.	.	2f	2a
.	.	.	.	.	4c	.	.
=38	=38	=38	=38	=38	=38	=38	=38
2r	2r	2r	2r	1B-	1d	1f	1b-
2.B-	2.f	2.b-	2.dd	.	.	.	.
.	.	.	.	1r	1r	1r	1r
4B-	4f	4b-	4dd	.	.	.	.
2B-	2f	2b-	2dd	.	.	.	.
=39	=39	=39	=39	=39	=39	=39	=39
1c	1e	1.g	1cc	0r	0r	0r	0r
2G	1d	.	2b-	.	.	.	.
[2B-	.	2f	[2dd	.	.	.	.
=40	=40	=40	=40	=40	=40	=40	=40
2B-]	2f	2b-	2dd]	0r	0r	0r	0r
2F	2f	2a	2cc	.	.	.	.
2.G	[1d	4g	2.b-	.	.	.	.
.	.	4a	.	.	.	.	.
.	.	[2b-	.	.	.	.	.
4A	.	.	4cc	.	.	.	.
=41	=41	=41	=41	=41	=41	=41	=41
4B-	2d]	2b-]	4dd	0r	0r	0r	0r
4c	.	.	4ee	.	.	.	.
1d	2d	2a	4ff	.	.	.	.
.	.	.	4dd	.	.	.	.
.	1A	2.a	2ee	.	.	.	.
2c#	.	.	2ee	.	.	.	.
.	.	4g	.	.	.	.	.
=42	=42	=42	=42	=42	=42	=42	=42
1d	2r	1f#	1dd	1r	1r	1r	1r
.	1d	.	.	.	.	.	.
2.G	.	2.g	2.b	[1G	1d	[1g	2r
.	[2g	.	.	.	.	.	[2dd
4A	.	8f	4cc	.	.	.	.
.	.	8e	.	.	.	.	.
=43	=43	=43	=43	=43	=43	=43	=43
1B	4g]	1d	1dd	1G]	1g	0g]	2dd]
.	4f	.	.	.	.	.	.
.	2d	.	.	.	.	.	1gg
2.c	2e	1g	[1cc	1C	1e	.	.
.	[2c	.	.	.	.	.	2gg
4B-	.	.	.	.	.	.	.
=44	=44	=44	=44	=44	=44	=44	=44
1A	2c]	1a	1cc]	1F	2.f	1c	2ff
.	2.f	.	.	.	.	.	2cc
.	.	.	.	.	4e-	.	.
1B-	.	[1f	[1b-	1BB-	4d	2r	1dd
.	4e-	.	.	.	4c	.	.
.	2d	.	.	.	2B-	[2f	.
=45	=45	=45	=45	=45	=45	=45	=45
0F	0c	0f]	2b-]	0F	2c	4f]	1ff
.	.	.	.	.	.	4g	.
.	.	.	4a	.	2.f	1a	.
.	.	.	4g	.	.	.	.
.	.	.	1a	.	.	.	1ff
.	.	.	.	.	4e-	.	.
.	.	.	.	.	2c	2f	.
=46	=46	=46	=46	=46	=46	=46	=46
0BB-	0B-	0f	2.b-	2r	2d	0f	2.dd
.	.	.	.	2.B-	2.d	.	.
.	.	.	4cc	.	.	.	4cc
.	.	.	1dd	.	.	.	1b-
.	.	.	.	4B-	4d	.	.
.	.	.	.	2B-	2d	.	.
=47	=47	=47	=47	=47	=47	=47	=47
0r	0r	0r	0r	2A	2c	2r	2r
.	.	.	.	2G	2B-	2.b-	2.dd
.	.	.	.	1B-	2d	.	.
.	.	.	.	.	.	4b-	4dd
.	.	.	.	.	[2f	2b-	2dd
=48	=48	=48	=48	=48	=48	=48	=48
0r	0r	0r	0r	2F	4f]	2a	2cc
.	.	.	.	.	4e	.	.
.	.	.	.	1G	4d	2g	2b-
.	.	.	.	.	4c	.	.
.	.	.	.	.	2B-	2b-	2dd
.	.	.	.	4F	2c	4a	[2ff
.	.	.	.	4E	.	4g	.
=49	=49	=49	=49	=49	=49	=49	=49
0r	0r	0r	0r	1D	4d	2f	4ff]
.	.	.	.	.	4c	.	4ee
.	.	.	.	.	4B-	2f	4dd
.	.	.	.	.	4A	.	4cc
.	.	.	.	1E-	1G	1g	2b-
.	.	.	.	.	.	.	2cc
=50	=50	=50	=50	=50	=50	=50	=50
0r	2r	2r	2r	1D	1A	1f#	1dd
.	1d	1f#	1a	.	.	.	.
.	.	.	.	1r	1r	1r	1r
.	2g	2g	2b-	.	.	.	.
=51	=51	=51	=51	=51	=51	=51	=51
0r	4f	2a	2cc	0r	0r	0r	0r
.	4e	.	.	.	.	.	.
.	4d	1b-	2dd	.	.	.	.
.	4c	.	.	.	.	.	.
.	2B-	.	2dd	.	.	.	.
.	2c	4a	4cc	.	.	.	.
.	.	4g	4b-	.	.	.	.
=52	=52	=52	=52	=52	=52	=52	=52
1r	1d	2.f	2a	0r	0r	0r	0r
.	.	.	1dd	.	.	.	.
.	.	8e	.	.	.	.	.
.	.	8d	.	.	.	.	.
[1A	2r	2e	.	.	.	.	.
.	[2e	2A	4cc#	.	.	.	.
.	.	.	4b	.	.	.	.
=53	=53	=53	=53	=53	=53	=53	=53
2A]	2e]	2.a	2cc#	0r	0r	0r	0r
2d	2f	.	2dd	.	.	.	.
.	.	4b-	.	.	.	.	.
4c	2g	1cc	2ee	.	.	.	.
4B-	.	.	.	.	.	.	.
4A	[2a	.	[2ff	.	.	.	.
4G	.	.	.	.	.	.	.
=54	=54	=54	=54	=54	=54	=54	=54
2F	2a]	2cc	2ff]	0r	0r	0r	0r
2G	4g	2b-	4ee	.	.	.	.
.	4f	.	4dd	.	.	.	.
1A	4e	1a	4cc#	.	.	.	.
.	4d	.	2dd	.	.	.	.
.	2e	.	.	.	.	.	.
.	.	.	4cc#	.	.	.	.
=55	=55	=55	=55	=55	=55	=55	=55
1D	1d	1a	1dd	2r	2r	2r	2r
.	.	.	.	1D	1d	1f#	1a
1r	1r	1r	1r	.	.	.	.
.	.	.	.	2G	2d	2g	2b-
=56	=56	=56	=56	=56	=56	=56	=56
0r	0r	0r	0r	4F	2f	2a	2cc
.	.	.	.	4E	.	.	.
.	.	.	.	4D	2.f	1b-	1dd
.	.	.	.	4C	.	.	.
.	.	.	.	2BB-	.	.	.
.	.	.	.	.	4d	.	.
.	.	.	.	2C	2e-	4a	2cc
.	.	.	.	.	.	4g	.
=57	=57	=57	=57	=57	=57	=57	=57
1r	1r	1r	1r	1D	0d	2f#	2b-
.	.	.	.	.	.	1g	4a
.	.	.	.	.	.	.	4g
1d	2r	1a	[1dd	1D	.	.	1a
.	[2d	.	.	.	.	2f#	.
=58	=58	=58	=58	=58	=58	=58	=58
2B-	2d]	1b-	2dd]	1G	2.d	1g	1g
2G	2g	.	2dd	.	.	.	.
.	.	.	.	.	4d	.	.
1d	4f	1a	1dd	2D	2d	2r	2r
.	4e	.	.	.	.	.	.
.	4d	.	.	2D	4f	2a	2dd
.	4c	.	.	.	4e	.	.
=59	=59	=59	=59	=59	=59	=59	=59
2.G	4B-	1g	0dd	0G	4d	2b-	2dd
.	4c	.	.	.	4c	.	.
.	2d	.	.	.	4B-	2b-	2dd
4A	.	.	.	.	4c	.	.
2.B-	1G	2.d	.	.	1d	1g	1b-
4c	.	4e	.	.	.	.	.
=60	=60	=60	=60	=60	=60	=60	=60
1d	2r	[0f#	[0dd	[0D	[0d	[0f#	[0a
.	1d	.	.	.	.	.	.
1D	.	.	.	.	.	.	.
.	4c	.	.	.	.	.	.
.	4B-	.	.	.	.	.	.
=61	=61	=61	=61	=61	=61	=61	=61
0D	1A	0f#]	0dd]	0D]	0d]	0f#]	0a]
.	1A	.	.	.	.	.	.
*-	*-	*-	*-	*-	*-	*-	*-
!!!CDT: 1525/^1526/-1594/2/2
!!!OCY: Italia
!!!AGN: Mass (Parody)
!!!AST: renaissance, vocal
!!!ASW: Motet (Palestrina)
!!!PWK: Masses, Book 8vce
!!!RNB: Cadence finals: D
!!!YOR: Le Opere Complete, v. 30, p. 110
!!!YOO: Rome, Italy: Fratelli Scalera
!!!END: 1992//
!!!EED: John Miller
!!!YEC: Copyright 2000, John Miller
!!!YEN: United States of America
!!!YEM: Rights to all derivative electronic formats reserved.
!!!YEM: Refer to licensing agreement for further details.
!!!YEM: This file must be accompanied by the licensing agreement.
!!!YEM: A copy of the licensing agreement may be found at http://www.music-cog.ohio-state.edu/HumdrumDatabases/Palestrina/license.txt
!!!EMD: converted to Humdrum by Bret Aarden
